static/images/download/fdroid.svg

<svg width="57" height="64" viewBox="0 0 57 64" fill="none" xmlns="http://www.w3.org/2000/svg">
<path d="M7.11109 40.8909C7.11109 41.8339 6.73648 42.7383 6.06969 43.4051C5.4029 44.0719 4.49853 44.4465 3.55554 44.4465C2.61255 44.4465 1.70819 44.0719 1.0414 43.4051C0.374601 42.7383 0 41.8339 0 40.8909V24.891C0 23.948 0.374601 23.0436 1.0414 22.3768C1.70819 21.7101 2.61255 21.3354 3.55554 21.3354C4.49853 21.3354 5.4029 21.7101 6.06969 22.3768C6.73648 23.0436 7.11109 23.948 7.11109 24.891V40.8909ZM56.8887 40.8909C56.8887 41.8339 56.5141 42.7383 55.8473 43.4051C55.1805 44.0719 54.2761 44.4465 53.3331 44.4465C52.3902 44.4465 51.4858 44.0719 50.819 43.4051C50.1522 42.7383 49.7776 41.8339 49.7776 40.8909V24.891C49.7776 23.948 50.1522 23.0436 50.819 22.3768C51.4858 21.7101 52.3902 21.3354 53.3331 21.3354C54.2761 21.3354 55.1805 21.7101 55.8473 22.3768C56.5141 23.0436 56.8887 23.948 56.8887 24.891V40.8909ZM24.8888 60.4446C24.8888 61.3876 24.5142 62.292 23.8474 62.9588C23.1806 63.6256 22.2762 64.0002 21.3333 64.0002C20.3903 64.0002 19.4859 63.6256 18.8191 62.9588C18.1523 62.292 17.7777 61.3876 17.7777 60.4446V44.4447C17.7777 43.5017 18.1523 42.5973 18.8191 41.9306C19.4859 41.2638 20.3903 40.8892 21.3333 40.8892C22.2762 40.8892 23.1806 41.2638 23.8474 41.9306C24.5142 42.5973 24.8888 43.5017 24.8888 44.4447V60.4446ZM39.111 60.4446C39.111 61.3876 38.7364 62.292 38.0696 62.9588C37.4028 63.6256 36.4984 64.0002 35.5554 64.0002C34.6124 64.0002 33.7081 63.6256 33.0413 62.9588C32.3745 62.292 31.9999 61.3876 31.9999 60.4446V44.4447C31.9999 43.5017 32.3745 42.5973 33.0413 41.9306C33.7081 41.2638 34.6124 40.8892 35.5554 40.8892C36.4984 40.8892 37.4028 41.2638 38.0696 41.9306C38.7364 42.5973 39.111 43.5017 39.111 44.4447V60.4446Z" fill="#FDBE00"/>
<path d="M10.6666 21.3352V48C10.6666 48.9429 11.0412 49.8473 11.708 50.5141C12.3748 51.1809 13.2792 51.5555 14.2222 51.5555H42.6665C43.6095 51.5555 44.5139 51.1809 45.1807 50.5141C45.8475 49.8473 46.2221 48.9429 46.2221 48V21.3352H10.6666ZM28.4443 3.55566C17.7777 3.55566 11.28 10.0356 10.6666 17.7778H46.2221C45.6069 10.0356 39.111 3.55566 28.4443 3.55566ZM21.3333 13.5076C20.8618 13.5076 20.4096 13.3203 20.0762 12.9869C19.7428 12.6535 19.5555 12.2014 19.5555 11.7299C19.5555 11.2584 19.7428 10.8062 20.0762 10.4728C20.4096 10.1394 20.8618 9.95209 21.3333 9.95209C21.8047 9.95209 22.2569 10.1394 22.5903 10.4728C22.9237 10.8062 23.111 11.2584 23.111 11.7299C23.111 12.2014 22.9237 12.6535 22.5903 12.9869C22.2569 13.3203 21.8047 13.5076 21.3333 13.5076ZM35.5554 13.5076C35.0839 13.5076 34.6318 13.3203 34.2984 12.9869C33.965 12.6535 33.7777 12.2014 33.7777 11.7299C33.7777 11.2584 33.965 10.8062 34.2984 10.4728C34.6318 10.1394 35.0839 9.95209 35.5554 9.95209C36.0269 9.95209 36.4791 10.1394 36.8125 10.4728C37.1459 10.8062 37.3332 11.2584 37.3332 11.7299C37.3332 12.2014 37.1459 12.6535 36.8125 12.9869C36.4791 13.3203 36.0269 13.5076 35.5554 13.5076Z" fill="#FDBE00"/>
<path fill-rule="evenodd" clip-rule="evenodd" d="M16.8187 0.280795C17.6456 -0.248614 18.745 -0.00746714 19.2745 0.819411L21.6442 4.52073C22.1736 5.34761 21.9325 6.4471 21.1056 6.97651C20.2787 7.50592 19.1792 7.26477 18.6498 6.43789L16.2801 2.73657C15.7507 1.90969 15.9918 0.810204 16.8187 0.280795ZM40.0966 0.298796C40.9136 0.843421 41.1343 1.94718 40.5897 2.76412L37.6279 7.20677C37.0833 8.02371 35.9796 8.24446 35.1626 7.69984C34.3457 7.15521 34.1249 6.05145 34.6696 5.23451L37.6313 0.791861C38.1759 -0.0250761 39.2797 -0.245829 40.0966 0.298796Z" fill="#FDBE00"/>
</svg>

<svg width="57" height="64" fill="none" xmlns="http://www.w3.org/2000/svg"><path d="M7.111 40.89a3.556 3.556 0 0 1-7.111 0V24.892a3.556 3.556 0 1 1 7.111 0v16Zm49.778 0a3.556 3.556 0 1 1-7.111 0V24.892a3.556 3.556 0 1 1 7.11 0v16Zm-32 19.555a3.556 3.556 0 1 1-7.111 0v-16a3.555 3.555 0 1 1 7.11 0v16Zm14.222 0a3.556 3.556 0 1 1-7.111 0v-16a3.555 3.555 0 1 1 7.111 0v16Z" fill="#FDBE00"/><path d="M10.667 21.335V48a3.556 3.556 0 0 0 3.555 3.556h28.444A3.556 3.556 0 0 0 46.222 48V21.335H10.667Zm17.777-17.78c-10.666 0-17.164 6.48-17.777 14.223h35.555c-.615-7.742-7.111-14.222-17.778-14.222Zm-7.11 9.953a1.778 1.778 0 1 1 0-3.556 1.778 1.778 0 0 1 0 3.556Zm14.221 0a1.778 1.778 0 1 1 0-3.556 1.778 1.778 0 0 1 0 3.556Z" fill="#FDBE00"/><path fill-rule="evenodd" clip-rule="evenodd" d="M16.819.28a1.778 1.778 0 0 1 2.456.54l2.37 3.7a1.778 1.778 0 1 1-2.995 1.918l-2.37-3.701A1.778 1.778 0 0 1 16.82.28ZM40.097.3a1.778 1.778 0 0 1 .493 2.465l-2.962 4.443a1.778 1.778 0 1 1-2.958-1.972L37.63.792a1.778 1.778 0 0 1 2.466-.493Z" fill="#FDBE00"/></svg>
